X: 8
T: Mariam Matrem
B: Llibre Vermeil
H: 14th Century
F:http://www.cervantesvirtual.com/s3/BVMC_OBRAS/ff6/fe3/e28/2b1/11d/fac/c70/021/85c/e60/64/mimes/imagenes/ff6fe3e2-82b1-11df-acc7-002185ce6064_26.jpg
Z:Ali Corbin <ali.corbin:gmail.com>
N: 
M: 4/4
L: 1/4
Q: 1/4=150
K: D Dorian
%
%%MIDI program 1	79 ocarina
%%MIDI program 2	74 recorder
%%MIDI program 3	71 clarinet
%
V:1 clef=treble
z D3|F2 G2|A2 (c/BA/)|(A/G/F/E/) (E/DC/)|D3 E |(G/FE) (FD/)|C3
w:Ma-ri-am Ma- trem**  Vir-***    gi-** nem at- tol-** li-* te
   D | F2   G2 |A2 (c/BA/)|(A/G/F/E/) (E/DC/)|D3  E|(F/ED/) ^C2|D3  
w:Ihe-sum Chris-tum ex-**   tol-***    li-**  te con-cor-** di-ter.
%
   A|d2 (AB)| c B2 A |A2 G2 |A3   A| c2 (d/c/B/c/)|A3
w:Ma-ri- a,* se-cu-li a- si-lum, de-fen- de***    nos.
w:Ihe-su, su-*pre-*ma bo-ni-tas  ve-ris-si-***   ma.
w:Ma-ri- a* fac-*  ta sae-cu-lis sal-va- ti-***   o
   A |d2 (AB)|(cB2) A |A2 G2|A3   A| c2 (d/c/B/c/)|A2    
w:Ihe-su, tu-* tum* re-fu-gi-um,  e-xau- di***    nos.
w:Ma- ri- a,*  dul-*cis pi-e-tas  gra-tis-si-***  ma.
w:Ihe-su dam-* na-* ti ho-mi-nis  re-demp-ti-***  o
   G2|F2  G2| A2 (c/BA/)|(A/G/F/E/) (E/DC/)|D3  E|(G/FE) (FD/)|C3  
w:lam es-tis vos  to-**   ta-***     li-** ter dif-fu-**  gi-* um,
w:Am- plis-si-ma  con-**  for-***    mi-** ter sit ca-**  ri-* tas
w:Pu- gna-re quem vi-**   ri-***     li-** ter per fa-**  mu-* lis
   D|F2   G2|A2 (c/BA/)|(A/G/F/E/) (E/DC/)|D3  E|(F/ED/) ^C2|D4||
w:to-tum mun-di  con-**  fu-***    gi-**   um re- a-**   li-ter.
w:ad nos quos pel-lit**  va-***    ni-**   tas e- nor-** mi-ter.
w:Per-cus-sis du-ris**   ia-***    cu-**   lis at-ro-**  ci-ter.
%
V:2 clef=treble_8
(D2C2)| D3 C|(E4|C4)|DA,2B,|CB,A,G,|(F,2A,2)|
(_B,C2D)|(E4|C4)|(D2B,2)|(A,3G,)|A,4|
(D,4|A,4)|B,C2D|E4|FE2D|E4| 
(D,4|A,4)|B,C2D|E4|FE2D|E4|
DEFD|(E4|C4)|DA,2B,|CB,A,G,|(F,2A,2)|
_B,C2D|(E4|C4)|(D2B,2)|A,3G,|A,4||
%
V:3 clef=treble_8
%
(D,2A,2|_B,4|A,4|A,4)|D,4|C,2D,E,|F,4|
(_B,4|A,4|A,4)|(D,2G,2)|(F,2E,2|D,4)|
(D4|C4)|(C2B,2|A,4)|(F,2G,2|A,4)|
(D4|C4)|(C2B,2|A,4)|(F,2G,2|A,4|
_B,4|A,4|A,4)|D,4|C,2D,E,|F,4|
(_B,4|A,4|A,4)|(D,2G,2)|(F,2E,2|D,4)||
%

